flags/soviet_union.svg

<svg width="512" height="512" viewBox="0 0 512 512" fill="none" xmlns="http://www.w3.org/2000/svg">
<rect width="512" height="512" fill="var(--flag-palette-bright-red, #d80027)"/>
<path fill-rule="evenodd" clip-rule="evenodd" d="M173 166C191.649 174.159 207.106 188.211 217 206C234.657 236.499 234.278 271.507 217.929 292.929L154 229L183 200L139 194L90 243L115 268L136 247L197.702 308.702C176.353 317.964 149.202 311.28 128 291L70 344L88 362L130 316C156.79 339.814 192.441 345.906 219.369 330.369L251 362L269 344L238.608 313.608C258.257 288.149 259.898 248.224 240 214C233.154 201.481 223.576 190.665 211.977 182.356C200.377 174.046 187.056 168.456 173 166ZM130 160L170 130.667L210 160L194.696 112.557L235 83H185.161L170 36L154.839 83H105L145.304 112.557L130 160ZM170 116.156L153 129L159.533 108.247L142 95H163.704L170 75L176.296 95H198L180.467 108.247L187 129L170 116.156Z" fill="var(--flag-palette-yellow, #ffda44)"/>
</svg>

<svg xmlns="http://www.w3.org/2000/svg" width="512" height="512" fill="none"><path fill="var(--flag-palette-bright-red, #d80027)" d="M0 0h512v512H0z"/><path fill="var(--flag-palette-yellow, #ffda44)" fill-rule="evenodd" d="M173 166a93 93 0 0 1 44 40c17.7 30.5 17.3 65.5 1 87l-64-64 29-29-44-6-49 49 25 25 21-21 61.7 61.7c-21.3 9.3-48.5 2.6-69.7-17.7l-58 53 18 18 42-46c26.8 23.8 62.4 30 89.4 14.4L251 362l18-18-30.4-30.4c19.7-25.5 21.3-65.4 1.4-99.6a95 95 0 0 0-67-48m-43-6 40-29.3 40 29.3-15.3-47.4L235 83h-49.8L170 36l-15.2 47H105l40.3 29.6zm40-43.8L153 129l6.5-20.8L142 95h21.7l6.3-20 6.3 20H198l-17.5 13.2L187 129z" clip-rule="evenodd"/></svg>
